X: 177
T:Irish Girl. JC.176
M:C
L:1/8
Q:100
S:John Clare,Poet,Helpstone (1793-1864)
R:Air
O:England
A:Northamptonshire
N:MR. 1st 2 notes and Bar 4,following the dotted qu.,the qu in the ms is
N:given as a semi-qu.The 2 notes after the 1st double bar lines are given
N:as semi-qu'sin MS.. Bar 12 incompletein MS, here given as Bar 10.
Z:vmp.P. Headford
K:D
d>c|B>cA>A F>FDF|G>B E>GD2d>c|B>cAA F>FDF|G>B E>FD2|!
|FG|AF AB/c/ ddBd|ce A^GA3F/G/|AF AB/c/ ddBd|cecA {G}F2d>c|!
B>cAA F>FDF|G>B E>FD2d>c|B>cAA F>FDF|!
G>B E>FD2"Sy"d>c|B>cAA FE/F/ Db|ad f/e/d/c/d2|]
W:Song text exists. See Deacon.|
